X: 75
T:O Hark The Mighty Cry
M:4/4
L:1/8
Q:200
S:Michael Raven (Hynde Horn)
R:March
A:Wales
Z:brian_martin12345@yahoo.com
K:G
B2|d2d2B2d2|A6c2|B3GB2A2|G6FG|A2B2A2e2|e3GB2A2|G6:||!
B2|d2d2d2B2|e2e2e2AB|c3d cBAG|d2d2d2dc|B2g2c2e2|e2d4d2|d2B2A3G|G6||
